!!!!SEGMENT: pl-wumfc--n43023_pachulski-henryk--moment-musical.krn
!!!cenid: 18xx:4166
!!!COM: Pachulski, Henryk
!!!COM-rismID: pe50042394
!!!CDT:
!!!CNT:
!!!OTL: Moment musical
!!!PDT: 1896
!!!AGN:
!!!SMS-siglum: PL-Wumfc
!!!SMS-shelfmark: N43023
!!!SMS-shelfwork: W
!!!SMS-variant:
!!!SMS-altvar:
!!!NIFC-rismSourceID: 1001167192
!!!NIFC-rismChildID: 1001167192
!!!NIFC-islandoraID: pl-wumfc:6053
!!!URL-pdf-islandora: https://repozytorium.nifc.pl/islandora/object/pl-wumfc%3A6053/datastream/PDF/view
!!!URL-scan: https://polish.musicsources.pl/pl/lokalizacje/galeria/druki-muzyczne/12459/1 @EN{Scan on Polish Music Sources Website} @PL{Skany w portalu Dziedzictwo Muzyki Polskiej w otwartym dostępie}
!!!ONB-nifc:
!!!AIN: 1 piano
!!!key:
**kern	**kern	**dynam	**fing
*part1	*part1	*part1	*part1
*staff2	*staff1	*	*staff1
*Ipiano	*Ipiano	*	*
*I"Piano.	*I"Piano.	*	*
*clefF4	*clefG2	*	*
*k[f#c#]	*k[f#c#]	*	*
*b:	*b:	*	*
*M6/8	*M6/8	*	*
=1	=1	=1	=1
*	*^	*	*
!!LO:TX:a:B:t=Andantino espressivo.
!	!	!	!LO:DY:b:t=piano	!
2.BB\ [2.F#	4raa	2.d\	p	.
.	8f#/	.	.	3
.	(4f#/	.	.	2
.	8g#X/)	.	.	.
=2	=2	=2	=2	=2
*^	*	*	*	*
4F#/]	4.C#\	(4a#X/	4.e\	<	2
8F#/	.	8ff#/)	.	.	.
(4F#/	4.D\	(4ff#/	4.f#\	.	.
8G#X/)	.	8dd/)	.	[	.
=3	=3	=3	=3	=3	=3
4.ryy	4.E\ 4.A#	(8cc#/L	4.g\	.	.
.	.	8b/	.	.	.
.	.	8cc#/J)	.	.	.
(8B/L	4.E#X\	(4dd/	4.g#X\	.	.
8A#/	.	.	.	.	.
8B/J)	.	8cc#/)	.	.	.
=4	=4	=4	=4	=4	=4
(4.B/	2.F#\	2.cc#/	(4.e#X\	>	.
4.A#X/)	.	.	4.f#\)	]	.
*	*	*v	*v	*	*
=5	=5	=5	=5	=5
!	!	!	!LO:DY:b:t=più forte	!
4rc	2.BB\	4.f#/ 4.dd	f	.
8F#/	.	.	.	.
(4F#/	.	4.dd\ 4.ff# 4.ddd	.	.
8G#X/)	.	.	.	.
!!LO:LB:g=original
=6	=6	=6	=6	=6
(4A#X/	4.C#\	(4cc#\ 4ff# 4ccc#	<	.
8f#/)	.	8a#X\) 8ff# 8aa#X	.	.
(4f#/	4.D\	8b~\L 8ff# 8bb	.	.
.	.	8cc#~\ 8ff# 8ccc#	.	.
8B/)	.	8dd~\J 8ff# 8ddd	[	.
=7	=7	=7	=7	=7
(8c#/L	4.G\	4.ee~\ 4.bb 4.eee	.	.
8B/	.	.	.	.
8c#/J)	.	.	.	.
(4d/	4.F#\	(4ff#\ 4aa#X 4fff#	.	.
8c#/)	.	8a#X\) 8ee 8aa#	.	.
=8	=8	=8	=8	=8
*	*	*^	*	*
2.B/	(4B\	(4.ee/	2.b\ 2.bb	>	.
.	8F#\	.	.	.	.
.	4.BB\)	4.dd/)	.	]	.
=9	=9	=9	=9	=9	=9
8rc	2.GG\	(4.b/	4rc	mp	.
(4D/	.	.	.	.	.
.	.	.	(8B\	.	.
4.E/)	.	4b-X/	8cn\	.	.
.	.	.	4c#X\)	.	.
.	.	8a/)	.	.	.
=10	=10	=10	=10	=10	=10
8rc	4.FF#\	(4.a/	4rc	.	.
4D/	.	.	.	.	.
.	.	.	8A\	.	.
8rc	4.BB\	4.d/)	4rA	.	.
4F#/	.	.	.	.	.
.	.	.	8A\	.	.
!!LO:LB:g=original
=11	=11	=11	=11	=11	=11
8rc	4.EE\	(4.g/	4rc	.	.
4D/	.	.	.	.	.
.	.	.	8B\	.	.
8rc	4.GG\	4f#/	8rc	.	.
4D/	.	.	4B\	.	.
.	.	8e/)	.	.	.
=12	=12	=12	=12	=12	=12
8rc	4.GG#X\	([4.f#/	4rG	.	.
4D/	.	.	.	>	.
.	.	.	[8B\	.	.
8rc	4.AA\	4f#/]	8B\]	.	.
4Gn/	.	.	4c#\	.	.
.	.	8e/)	.	]	.
=13	=13	=13	=13	=13	=13
8rc	2.D\	(4.f#/	4rG	.	.
4A/	.	.	.	.	.
.	.	.	8d\	.	.
8rc	.	4.g#X/	4rG	<	.
4B/	.	.	.	.	.
.	.	.	8fn\	.	.
=14	=14	=14	=14	=14	=14
8rc	4.C#\	4.a/)	4rc	.	.
4A/	.	.	.	.	.
.	.	.	8e\	.	.
8rc	4.BB\	(4ee/	8rc	.	.
4A/	.	.	4f#X\	.	.
.	.	8dd/)	.	[	.
=15	=15	=15	=15	=15	=15
8rc	2.E\	(4.b/	4rc	.	.
4d/	.	.	.	.	.
.	.	.	8f#\	.	.
(8G#X/	.	4.cc#/	4rc	.	.
4d/)	.	.	.	.	.
.	.	.	8e\	.	.
!!LO:LB:g=original
=16	=16	=16	=16	=16	=16
8rc	2.AA\	2.a/)	4rc	>	.
(4E/	.	.	.	.	.
.	.	.	(8d\	.	.
4.A/)	.	.	4.c#\)	]	.
=17	=17	=17	=17	=17	=17
!	!	!LO:TX:a:i:t=più agitato	!	!LO:DY:b:t=più forte	!
8rc	2.GG\	(4.b/	4rc	f	.
(4D/	.	.	.	.	.
.	.	.	(8B\	.	.
4.E/)	.	4b-X/	8cn\	.	.
.	.	.	4c#X\)	.	.
.	.	8a/)	.	.	.
=18	=18	=18	=18	=18	=18
8rc	4.FF#\	([4.a/	4rc	.	.
4D/	.	.	.	.	.
.	.	.	(8A\	.	.
8rc	4.BB\	4a/]	8c#\	.	.
4F#/	.	.	4d\)	.	.
.	.	8dd/)	.	.	.
=19	=19	=19	=19	=19	=19
8rc	4.EE\	(4.g/	4rG	.	.
4D/	.	.	.	.	.
.	.	.	[8B\	.	.
8rc	4.GG\	8f#/L	4.B\]	.	.
4D/	.	8b/	.	.	.
.	.	8e/J)	.	.	.
=20	=20	=20	=20	=20	=20
8rc	4.GG#X\	([4.f#/	8rc	.	.
4D/	.	.	(8B-X\L	.	.
.	.	.	8Bn\J	.	.
8rc	4.AA\	4f#/]	8cn\	<	.
4Gn/	.	.	4c#X\)	.	.
.	.	8e/)	.	[	.
!!LO:PB:g=original
=21	=21	=21	=21	=21	=21
8rc	4.BB\	4.d/	4rF	.	.
4F#/	.	.	.	.	.
.	.	.	8B\	.	.
8rc	4.AA\	(4e/	8rF	<	.
4D/	.	.	4cn\	.	.
.	.	8f#/)	.	.	.
=22	=22	=22	=22	=22	=22
8rc	2.GG\	4.g/	4rc	.	.
4D/	.	.	.	.	.
.	.	.	8B\	.	.
8rc	.	4.a/	4rc	[	.
4E/	.	.	.	.	.
.	.	.	8c#X\	.	.
=23	=23	=23	=23	=23	=23
4rc	2.GG\	([4.b/	8rc	.	.
.	.	.	(8c#\L	<	.
(8E#X/	.	.	8d\J	.	.
4.B/)	.	4b/]	8d#X\L	.	.
.	.	.	8e\	.	.
.	.	8cc#/)	8e#X\J)	[	.
*	*	*v	*v	*	*
=24	=24	=24	=24	=24
4rc	2.FF#\	4.A#X:/ 4.f#: 4.cc#:	>	.
(8C#/	.	.	.	.
4.A#X/)	.	4.ff#\	]]	.
*v	*v	*	*	*
=25	=25	=25	=25
!	!	!LO:DY:b:t=piano	!
2.BB:\ 2.d:	4r	p	.
.	8f#\ 8ff#	.	.
.	(4f#\ 4ff#	.	.
.	8g#X\) 8gg#X	.	.
!!LO:LB:g=original
=26	=26	=26	=26
*^	*	*	*
4rG	4.C#:\ 4.e:	(4a#X\ 4aa#X	<	.
8F#/	.	8ff#\) 8fff#	.	.
(4F#/	4.D\ 4.f#	(4ff#\ 4fff#	.	.
8G#X/)	.	8dd\) 8ddd	[	.
=27	=27	=27	=27	=27
4.ryy	4.E:\ 4.A#X: 4.gn:	(8cc#\L 8ccc#	.	.
.	.	8b\ 8bb	.	.
.	.	8cc#\J) 8ccc#	.	.
(8B/L	4.E#X:\ 4.g#X:	(4dd\ 4ddd	.	.
8A#/	.	.	.	.
8B/J)	.	8cc#\) 8ccc#	.	.
=28	=28	=28	=28	=28
(4.B/ 4.e#X	2.F#\	(4.cc#\ 4.ccc#	>	.
4.A#X/) 4.f#	.	4.f#\) 4.ff#	]]	.
=29	=29	=29	=29	=29
!	!	!	!LO:DY:b:t=più forte	!
4rc	2.BB\	4.f#/ 4.dd	f	.
8F#/	.	.	.	.
(4F#/	.	4.dd\ 4.ff# 4.ddd	.	.
8G#X/)	.	.	.	.
=30	=30	=30	=30	=30
(4A#X/	4.C#\	(4cc#\ 4ff# 4ccc#	.	.
8f#/)	.	8a#X\) 8ff# 8aa#X	.	.
(4f#/	4.D\	8b~\L 8ff# 8bb	.	.
.	.	8cc#~\ 8ff# 8ccc#	.	.
8B/)	.	8dd~\J 8ff# 8ddd	.	.
!!LO:LB:g=original
=31	=31	=31	=31	=31
(8c#/L	2.G\	([4.ee\ [4.bb [4.eee	.	.
8B/	.	.	.	.
8c#/J	.	.	.	.
4.e/)	.	8ee\L] 8bb] 8eee]	.	.
.	.	8dd\ 8ddd	.	.
.	.	8cc#\J) 8ccc#	.	.
*v	*v	*	*	*
=32	=32	=32	=32
4.F#\ 4.d	4.ff#\ 4.bb 4.fff#	.	.
(8qFF#/	.	.	.
4.F#\) 4.c#	4.a#X\ 4.ee 4.aa#X	>]	.
=33	=33	=33	=33
*^	*	*	*
!	!	!	!LO:DY:b:t=piano e espress.	!
4rc	[2.BB\	4.b\ 4.dd 4.bb	p	.
8F#/	.	.	.	.
(4F#/	.	4r	.	.
8G/)	.	8r	.	.
=34	=34	=34	=34	=34
*	*	*^	*	*
([4.A/	2.BB\_	4raa	2.cn\ 2.d#X	.	.
.	.	8f#/	.	.	.
4A/]	.	(4f#/	.	.	.
8G/)	.	8g/)	.	.	.
=35	=35	=35	=35	=35	=35
4.F#/	2.BB\_	(4a/	4.cn\ 4.e	.	.
.	.	8b/	.	.	.
4.E/	.	8a/L	4.c\	.	.
.	.	8g/	.	.	.
.	.	8f#/J)	.	.	.
!!LO:LB:g=original
=36	=36	=36	=36	=36	=36
4.D#X/	2.BB\]	2.b/	(4B\ 4f#	>	.
.	.	.	8g\	.	.
4.A/	.	.	8f#\L	.	.
.	.	.	8e\	.	.
.	.	.	8d#X\J)	]	.
*	*	*v	*v	*	*
=37	=37	=37	=37	=37
4rc	[2.BB\	2.r	p	.
8E/	.	.	.	.
(4E/	.	.	.	.
8F#/)	.	.	.	.
=38	=38	=38	=38	=38
*	*	*^	*	*
([4.G/	2.BB\_	4raa	2.B\ 2.c#	<	.
.	.	8e/	.	.	.
4G/]	.	(4e/	.	.	.
8F#/)	.	8f#/)	.	[	.
=39	=39	=39	=39	=39	=39
4.E/	2.BB\_	(4g/	4.B\ 4.d	.	.
.	.	8a/	.	.	.
4.D/	.	8g/L	4.B\	.	.
.	.	8f#/	.	.	.
.	.	8e/J)	.	.	.
=40	=40	=40	=40	=40	=40
4.C#/	2.BB\]	2.g/	(4B\ 4e	>	.
.	.	.	8f#\	.	.
4.G/	.	.	8e\L	.	.
.	.	.	8d\	.	.
.	.	.	8c#\J)	]	.
!!LO:LB:g=original
=41	=41	=41	=41	=41	=41
!	!	!	!	!LO:DY:b:t=piano con dolore	!
4rc	[2.BBB\	4raa	4ryy	p	.
8FF#/	.	8raa	8rcyy	.	.
(4.FF#/	.	[4.d/ [4.f#	4rF	.	.
.	.	.	8B\	.	.
*v	*v	*	*	*	*
=42	=42	=42	=42	=42
2.BBB/]) 2.GG	4.d/] 4.f#]	[4.B\	.	.
.	4.c#/ 4.e#X	4.B\]	.	.
*	*clefF4	*	*	*
=43	=43	=43	=43	=43
*^	*	*	*	*
4rc	[2.BBB\	4rc	4ryy	.	.
8FF#/	.	8rc	8rEEyy	.	.
(4.FF#/	.	[4.B/ [4.d	4rEE	.	.
.	.	.	8F#\	.	.
*v	*v	*	*	*	*
=44	=44	=44	=44	=44
2.BBB/]) 2.GG	4.B/] 4.d]	(4.F#\	.	.
.	4.B/ 4.c#	4.E#X\)	.	.
*	*v	*v	*	*
=45	=45	=45	=45
2.BBB/ 2.FF#	2.F#\ 2.B 2.d	>	.
=46	=46	=46	=46
2.BBB/ 2.GG	2.E\ 2.B	]]	.
=47	=47	=47	=47
[2.BBB/ [2.FF#	[2.D\ [2.B	pp	.
=48	=48	=48	=48
2.BBB/] 2.FF#]	2.D\] 2.B]	.	.
==	==	==	==
*-	*-	*-	*-
!!!system-decoration: {(p1)}
!!!ENC: Solarz Mateusz
!!!END: 2022-09-08
!!!ENC: Kamil Watkowski
!!!END: 2022-09-22
!!!YEC: Copyright 2022 Narodowy Instytut Fryderyka Chopina (https://polishscores.org)
!!!YEM: License CC-BY-4.0 (https://creativecommons.org/licenses/by/4.0)
